X: 111
T:High Reel, The
T:Duffy the Dancer
M:C|
L:1/8
R:Reel
K:AMix
a2fa eA~A2|cAeA fAef|a2fa eAAc|Bcdc BGGB|!
a2fa eA~A2|(3Bcd ef gefg|afge fdec|Bcdc BGGB:|!
|:cAeA fAeA|cAaf ecAB|cAeA fAec|Bcdc BGGB|!
cAeA fAeA|(3Bcd ef gefg|afge fdec|Bcdc BGGB:|]!
